X:1
T:Title
%%score { 1 | 2 }
L:1/8
Q:1/4=104
M:6/8
K:A
V:1 treble nm="Grand Piano"
V:2 bass 
V:1
 [CE]2 [CA] [Ec]2 [Ee] | [Ed]2 [Ec] B3 | B2 d c2 B | [Ec]6 | [CE]2 [CA] [Ec]2 [Ee] | %5
w: Chas.~K.~Langley * * *|||||
 [Ed]2 [Ec] [EB]3 | [EB]2 [B,EG] [A,^DF]2 [B,DG] | [G,E]6 | [A,CA]2 [A,EA] [DEG]2 [CEA] | B2 c B3 | %10
w: |||||
 B2 [EB] [EA]2 B | c2 d c3 | [Ec]2 [CA] [CE]2 [EA] | [FB]2 [FA] F3 | E2 A B2 G | [CEA]6 |] %16
w: ||||||
V:2
 [A,,A,]2 [A,,E,] [A,,A,]2 [C,A,] | [B,,G,]2 [A,,A,] [E,G,E]3 | [E,G,E]2 [E,B,E] [E,A,E]2 [E,G,E] | %3
 [A,,A,]6 | [A,,A,]2 [A,,E,] [A,,A,]2 [C,A,] | [B,,G,]2 [A,,A,] [E,G,]3 | [B,,G,]2 B,, B,,2 B,, | %7
 E,6 | A,,2 C, B,,2 A,, | [E,G,E]2 [E,A,E] [E,G,E]3 | [E,G,E]2 [D,G,] [C,A,]2 [E,G,E] | %11
 [A,E]2 [A,F][K:bass] [A,E]3 | [A,,A,]2 [A,,E,] [A,,A,]2 [C,A,] | [D,A,]2 [D,A,] [D,A,D]3 | %14
 [E,A,C]2 [E,CE] [E,DE]2 [E,B,E] | A,,6 |] %16

